X:12
T:O'Hare Jig
M:6/8
C:Ben Bolker
R:jig
K:Am
A,3 CA,C | ECE A2 A | GcA GEC | DEC B,A,G, | \
A,3 CA,C | ECE A2 A | GcA GED | EA,G, A,3 :|
|: c3 ece | a^g=g fed | BdB  GAB | d^c=c BAG | \
A3 cAc | a^g=g fed | BdB  GAB | A3 z3 :|
